X: 524
T: Lady Susan Hamilton
R: reel
B: "Preston's Twenty Four Country Dances for the Year 1804", Tho. Preston, ed. p.222
F: http://imslp.org/wiki/24_Country_Dances_for_the_Year_1804_(Preston_(publisher),_Thomas)
M: C
L: 1/8
K: Bb
B |\
FBDB FB (d/c/)B | fB d/c/B (Acc)d | FBDB FB db | fdcB FBB :|
d |\
B/c/d/e/ fb gBeg | f>d (e/d/)(c/B/) (Acc)d | (B/c/)(d/e/) fb gbfb | dfec (dBB)d |
(B/c/)(d/e/) fb gBeg | f>dTcB (Acc)e | dfeg f(d c/d/)e | d>B A/B/c dBB |]
% - - - - - - - - - - - - - - - - - - - - - - - - -
%%begintext align
%% 1st & 2d Cu. set & change sides, back again, lead
%% down the middle up again & Allemande.
%%endtext

%%sep 1 1 500
